dist/img/icon-business.svg

<svg width="64" height="17" viewBox="0 0 64 17" fill="none" xmlns="http://www.w3.org/2000/svg">
<path d="M5.13086 4.43359H7.67383C8.85352 4.43359 9.70508 4.60547 10.2285 4.94922C10.7559 5.29297 11.0195 5.83594 11.0195 6.57812C11.0195 7.07812 10.8906 7.49414 10.6328 7.82617C10.375 8.1582 10.0039 8.36719 9.51953 8.45312V8.51172C10.1211 8.625 10.5625 8.84961 10.8438 9.18555C11.1289 9.51758 11.2715 9.96875 11.2715 10.5391C11.2715 11.3086 11.002 11.9121 10.4629 12.3496C9.92773 12.7832 9.18164 13 8.22461 13H5.13086V4.43359ZM6.53125 7.97266H7.87891C8.46484 7.97266 8.89258 7.88086 9.16211 7.69727C9.43164 7.50977 9.56641 7.19336 9.56641 6.74805C9.56641 6.3457 9.41992 6.05469 9.12695 5.875C8.83789 5.69531 8.37695 5.60547 7.74414 5.60547H6.53125V7.97266ZM6.53125 9.10938V11.8223H8.01953C8.60547 11.8223 9.04688 11.7109 9.34375 11.4883C9.64453 11.2617 9.79492 10.9062 9.79492 10.4219C9.79492 9.97656 9.64258 9.64648 9.33789 9.43164C9.0332 9.2168 8.57031 9.10938 7.94922 9.10938H6.53125ZM19.7676 4.43359V9.97656C19.7676 10.6094 19.6309 11.1641 19.3574 11.6406C19.0879 12.1133 18.6953 12.4785 18.1797 12.7363C17.668 12.9902 17.0547 13.1172 16.3398 13.1172C15.2773 13.1172 14.4512 12.8359 13.8613 12.2734C13.2715 11.7109 12.9766 10.9375 12.9766 9.95312V4.43359H14.3828V9.85352C14.3828 10.5605 14.5469 11.082 14.875 11.418C15.2031 11.7539 15.707 11.9219 16.3867 11.9219C17.707 11.9219 18.3672 11.2285 18.3672 9.8418V4.43359H19.7676ZM26.8984 10.6738C26.8984 11.4355 26.623 12.0332 26.0723 12.4668C25.5215 12.9004 24.7617 13.1172 23.793 13.1172C22.8242 13.1172 22.0312 12.9668 21.4141 12.666V11.3418C21.8047 11.5254 22.2188 11.6699 22.6562 11.7754C23.0977 11.8809 23.5078 11.9336 23.8867 11.9336C24.4414 11.9336 24.8496 11.8281 25.1113 11.6172C25.377 11.4062 25.5098 11.123 25.5098 10.7676C25.5098 10.4473 25.3887 10.1758 25.1465 9.95312C24.9043 9.73047 24.4043 9.4668 23.6465 9.16211C22.8652 8.8457 22.3145 8.48438 21.9941 8.07812C21.6738 7.67188 21.5137 7.18359 21.5137 6.61328C21.5137 5.89844 21.7676 5.33594 22.2754 4.92578C22.7832 4.51562 23.4648 4.31055 24.3203 4.31055C25.1406 4.31055 25.957 4.49023 26.7695 4.84961L26.3242 5.99219C25.5625 5.67188 24.8828 5.51172 24.2852 5.51172C23.832 5.51172 23.4883 5.61133 23.2539 5.81055C23.0195 6.00586 22.9023 6.26562 22.9023 6.58984C22.9023 6.8125 22.9492 7.00391 23.043 7.16406C23.1367 7.32031 23.291 7.46875 23.5059 7.60938C23.7207 7.75 24.1074 7.93555 24.666 8.16602C25.2949 8.42773 25.7559 8.67188 26.0488 8.89844C26.3418 9.125 26.5566 9.38086 26.6934 9.66602C26.8301 9.95117 26.8984 10.2871 26.8984 10.6738ZM28.5566 13V4.43359H29.957V13H28.5566ZM39.3613 13H37.6445L33.4316 6.17383H33.3848L33.4141 6.55469C33.4688 7.28125 33.4961 7.94531 33.4961 8.54688V13H32.2246V4.43359H33.9238L38.125 11.2246H38.1602C38.1523 11.1348 38.1367 10.8086 38.1133 10.2461C38.0898 9.67969 38.0781 9.23828 38.0781 8.92188V4.43359H39.3613V13ZM46.4688 13H41.623V4.43359H46.4688V5.61719H43.0234V7.94922H46.252V9.12109H43.0234V11.8105H46.4688V13ZM53.2656 10.6738C53.2656 11.4355 52.9902 12.0332 52.4395 12.4668C51.8887 12.9004 51.1289 13.1172 50.1602 13.1172C49.1914 13.1172 48.3984 12.9668 47.7812 12.666V11.3418C48.1719 11.5254 48.5859 11.6699 49.0234 11.7754C49.4648 11.8809 49.875 11.9336 50.2539 11.9336C50.8086 11.9336 51.2168 11.8281 51.4785 11.6172C51.7441 11.4062 51.877 11.123 51.877 10.7676C51.877 10.4473 51.7559 10.1758 51.5137 9.95312C51.2715 9.73047 50.7715 9.4668 50.0137 9.16211C49.2324 8.8457 48.6816 8.48438 48.3613 8.07812C48.041 7.67188 47.8809 7.18359 47.8809 6.61328C47.8809 5.89844 48.1348 5.33594 48.6426 4.92578C49.1504 4.51562 49.832 4.31055 50.6875 4.31055C51.5078 4.31055 52.3242 4.49023 53.1367 4.84961L52.6914 5.99219C51.9297 5.67188 51.25 5.51172 50.6523 5.51172C50.1992 5.51172 49.8555 5.61133 49.6211 5.81055C49.3867 6.00586 49.2695 6.26562 49.2695 6.58984C49.2695 6.8125 49.3164 7.00391 49.4102 7.16406C49.5039 7.32031 49.6582 7.46875 49.873 7.60938C50.0879 7.75 50.4746 7.93555 51.0332 8.16602C51.6621 8.42773 52.123 8.67188 52.416 8.89844C52.709 9.125 52.9238 9.38086 53.0605 9.66602C53.1973 9.95117 53.2656 10.2871 53.2656 10.6738ZM59.8633 10.6738C59.8633 11.4355 59.5879 12.0332 59.0371 12.4668C58.4863 12.9004 57.7266 13.1172 56.7578 13.1172C55.7891 13.1172 54.9961 12.9668 54.3789 12.666V11.3418C54.7695 11.5254 55.1836 11.6699 55.6211 11.7754C56.0625 11.8809 56.4727 11.9336 56.8516 11.9336C57.4062 11.9336 57.8145 11.8281 58.0762 11.6172C58.3418 11.4062 58.4746 11.123 58.4746 10.7676C58.4746 10.4473 58.3535 10.1758 58.1113 9.95312C57.8691 9.73047 57.3691 9.4668 56.6113 9.16211C55.8301 8.8457 55.2793 8.48438 54.959 8.07812C54.6387 7.67188 54.4785 7.18359 54.4785 6.61328C54.4785 5.89844 54.7324 5.33594 55.2402 4.92578C55.748 4.51562 56.4297 4.31055 57.2852 4.31055C58.1055 4.31055 58.9219 4.49023 59.7344 4.84961L59.2891 5.99219C58.5273 5.67188 57.8477 5.51172 57.25 5.51172C56.7969 5.51172 56.4531 5.61133 56.2188 5.81055C55.9844 6.00586 55.8672 6.26562 55.8672 6.58984C55.8672 6.8125 55.9141 7.00391 56.0078 7.16406C56.1016 7.32031 56.2559 7.46875 56.4707 7.60938C56.6855 7.75 57.0723 7.93555 57.6309 8.16602C58.2598 8.42773 58.7207 8.67188 59.0137 8.89844C59.3066 9.125 59.5215 9.38086 59.6582 9.66602C59.7949 9.95117 59.8633 10.2871 59.8633 10.6738Z" fill="#A9BBBE"/>
<rect x="0.5" y="1.5" width="63" height="15" rx="3.5" stroke="#A9BBBE"/>
</svg>

<svg width="64" height="17" viewBox="0 0 64 17" fill="none" xmlns="http://www.w3.org/2000/svg"><path d="M5.13 4.434h2.544c1.18 0 2.031.171 2.554.515.528.344.792.887.792 1.63 0 .5-.13.915-.387 1.247-.258.332-.63.541-1.113.627v.059c.601.113 1.043.338 1.324.674.285.332.428.783.428 1.353 0 .77-.27 1.373-.81 1.81-.534.434-1.28.651-2.237.651H5.13V4.434zm1.401 3.539H7.88c.586 0 1.014-.092 1.283-.276.27-.187.404-.504.404-.949 0-.402-.146-.693-.439-.873-.29-.18-.75-.27-1.383-.27H6.531v2.368zm0 1.136v2.713H8.02c.585 0 1.027-.111 1.324-.334.3-.226.45-.582.45-1.066 0-.445-.151-.776-.456-.99-.305-.215-.768-.323-1.389-.323H6.531zm13.237-4.675v5.543c0 .632-.137 1.187-.41 1.664a2.72 2.72 0 01-1.178 1.095c-.512.254-1.125.381-1.84.381-1.063 0-1.889-.281-2.479-.844-.59-.562-.884-1.335-.884-2.32v-5.52h1.406v5.42c0 .707.164 1.229.492 1.565.328.336.832.504 1.512.504 1.32 0 1.98-.694 1.98-2.08V4.434h1.4zm7.13 6.24c0 .761-.275 1.36-.826 1.793-.55.433-1.31.65-2.279.65-.969 0-1.762-.15-2.379-.451v-1.324c.39.183.805.328 1.242.433.442.106.852.159 1.23.159.555 0 .964-.106 1.225-.317.266-.21.399-.494.399-.85 0-.32-.121-.591-.364-.814-.242-.223-.742-.486-1.5-.79-.78-.317-1.332-.679-1.652-1.085-.32-.406-.48-.894-.48-1.465 0-.715.254-1.277.761-1.687.508-.41 1.19-.615 2.045-.615.82 0 1.637.18 2.45.539l-.446 1.142c-.762-.32-1.441-.48-2.039-.48-.453 0-.797.1-1.031.299a.963.963 0 00-.352.779c0 .223.047.414.141.574.094.156.248.305.463.445.215.141.601.327 1.16.557.629.262 1.09.506 1.383.732.293.227.508.483.644.768.137.285.205.621.205 1.008zM28.557 13V4.434h1.4V13h-1.4zm10.804 0h-1.716l-4.213-6.826h-.047l.03.38c.054.727.081 1.391.081 1.993V13h-1.271V4.434h1.699l4.201 6.79h.035c-.008-.09-.023-.415-.047-.978a34.022 34.022 0 01-.035-1.324V4.434h1.283V13zm7.108 0h-4.846V4.434h4.846v1.183h-3.446V7.95h3.229v1.172h-3.229v2.69h3.446V13zm6.797-2.326c0 .761-.276 1.36-.826 1.793-.551.433-1.311.65-2.28.65-.969 0-1.762-.15-2.379-.451v-1.324c.39.183.805.328 1.242.433.442.106.852.159 1.23.159.556 0 .964-.106 1.225-.317a1.03 1.03 0 00.399-.85c0-.32-.121-.591-.363-.814-.242-.223-.742-.486-1.5-.79-.782-.317-1.332-.679-1.653-1.085-.32-.406-.48-.894-.48-1.465 0-.715.254-1.277.762-1.687.507-.41 1.189-.615 2.044-.615.82 0 1.637.18 2.45.539l-.446 1.142c-.761-.32-1.441-.48-2.039-.48-.453 0-.797.1-1.03.299a.963.963 0 00-.352.779c0 .223.046.414.14.574.094.156.248.305.463.445.215.141.602.327 1.16.557.63.262 1.09.506 1.383.732.293.227.508.483.645.768.136.285.205.621.205 1.008zm6.597 0c0 .761-.275 1.36-.826 1.793-.55.433-1.31.65-2.28.65-.968 0-1.76-.15-2.378-.451v-1.324c.39.183.805.328 1.242.433a5.29 5.29 0 001.23.159c.555 0 .964-.106 1.225-.317.266-.21.399-.494.399-.85 0-.32-.122-.591-.364-.814-.242-.223-.742-.486-1.5-.79-.78-.317-1.332-.679-1.652-1.085-.32-.406-.48-.894-.48-1.465 0-.715.253-1.277.761-1.687.508-.41 1.19-.615 2.045-.615.82 0 1.637.18 2.45.539l-.446 1.142c-.762-.32-1.441-.48-2.039-.48-.453 0-.797.1-1.031.299a.963.963 0 00-.352.779c0 .223.047.414.14.574.095.156.249.305.464.445.215.141.601.327 1.16.557.629.262 1.09.506 1.383.732.293.227.508.483.644.768.137.285.205.621.205 1.008z" fill="#A9BBBE"/><rect x=".5" y="1.5" width="63" height="15" rx="3.5" stroke="#A9BBBE"/></svg>
